src/svgs/godot.svg

<?xml version="1.0" encoding="UTF-8" standalone="no"?>
<svg
   width="32"
   height="32"
   version="1.1"
   id="svg1170"
   xmlns="http://www.w3.org/2000/svg"
   xmlns:svg="http://www.w3.org/2000/svg">
  <defs
     id="defs1174" />
  <path
     id="path1164"
     style="fill:#478cbf;stroke-width:0.32"
     d="M 14.169922 7.5117188 C 13.346922 7.6947188 12.534484 7.9490312 11.771484 8.3320312 C 11.789484 9.0060312 11.830922 9.6516406 11.919922 10.306641 C 11.622922 10.496641 11.313109 10.658859 11.037109 10.880859 C 10.756109 11.096859 10.466891 11.303641 10.212891 11.556641 A 15.73 15.73 0 0 0 8.6132812 10.625 C 8.0162813 11.269 7.456 11.963234 7 12.740234 C 7.359 13.303234 7.7426094 13.869547 8.0996094 14.310547 L 8.0996094 19.076172 L 8.125 19.078125 L 11.048828 19.359375 A 0.314 0.314 0 0 1 11.332031 19.650391 L 11.421875 20.941406 L 13.970703 21.123047 L 14.146484 19.931641 A 0.315 0.315 0 0 1 14.457031 19.664062 L 17.539062 19.664062 C 17.695063 19.664062 17.830516 19.776641 17.853516 19.931641 L 18.029297 21.123047 L 20.576172 20.941406 L 20.667969 19.650391 A 0.314 0.314 0 0 1 20.949219 19.359375 L 23.871094 19.078125 A 0.115 0.115 0 0 1 23.898438 19.076172 L 23.898438 18.695312 L 23.900391 18.695312 L 23.900391 14.310547 C 24.311391 13.792547 24.7 13.220234 25 12.740234 C 24.543 11.963234 23.983719 11.266047 23.386719 10.623047 A 15.75 15.75 0 0 0 21.785156 11.556641 C 21.531156 11.303641 21.244891 11.096859 20.962891 10.880859 C 20.686891 10.658859 20.374125 10.496641 20.078125 10.306641 A 18.37 18.37 0 0 0 20.228516 8.3300781 C 19.465516 7.9470781 18.651125 7.6947187 17.828125 7.5117188 A 17.044 17.044 0 0 0 16.939453 9.2441406 A 6.085 6.085 0 0 0 16.005859 9.1699219 L 15.994141 9.1699219 A 6.08 6.08 0 0 0 15.060547 9.2441406 A 16.914 16.914 0 0 0 14.169922 7.5117188 z M 11.857422 14.484375 A 1.76 1.76 0 1 1 10.095703 16.244141 C 10.095703 15.271141 10.885422 14.484375 11.857422 14.484375 z M 20.142578 14.484375 A 1.7605003 1.7605003 0 1 1 20.144531 18.005859 A 1.7605003 1.7605003 0 0 1 20.142578 14.484375 z M 19.771484 15.199219 A 1.1685 1.1685 0 0 0 18.806641 16.349609 A 1.1685 1.1685 0 1 0 21.142578 16.349609 A 1.1685 1.1685 0 0 0 19.771484 15.199219 z M 11.828125 15.232422 A 1.169 1.169 0 0 0 10.857422 16.349609 A 1.169 1.169 0 1 0 13.195312 16.349609 A 1.169 1.169 0 0 0 11.828125 15.232422 z M 16 15.513672 C 16.313 15.513672 16.566406 15.744297 16.566406 16.029297 L 16.566406 17.650391 C 16.566406 17.935391 16.313 18.166016 16 18.166016 C 15.687 18.166016 15.433594 17.935391 15.433594 17.650391 L 15.433594 16.029297 C 15.433594 15.744297 15.686 15.513672 16 15.513672 z M 8.0957031 19.707031 C 8.0967031 19.989031 8.0996094 20.297375 8.0996094 20.359375 C 8.0996094 23.134375 11.620141 24.469375 15.994141 24.484375 L 16.005859 24.484375 C 20.379859 24.468375 23.898438 23.134375 23.898438 20.359375 C 23.898438 20.296375 23.903297 19.990031 23.904297 19.707031 L 21.277344 19.960938 L 21.1875 21.257812 A 0.315 0.315 0 0 1 20.894531 21.548828 L 17.78125 21.771484 L 17.759766 21.771484 A 0.315 0.315 0 0 1 17.449219 21.503906 L 17.269531 20.292969 L 14.728516 20.292969 L 14.550781 21.503906 A 0.314 0.314 0 0 1 14.21875 21.771484 L 11.105469 21.548828 A 0.315 0.315 0 0 1 10.8125 21.257812 L 10.722656 19.960938 L 8.0957031 19.707031 z " />
</svg>

<svg width="32" height="32" xmlns="http://www.w3.org/2000/svg"><g fill="#478cbf" stroke-width=".32"><path d="M14.17 7.512c-.823.183-1.636.437-2.399.82.018.674.06 1.32.149 1.975-.297.19-.607.352-.883.574-.281.216-.57.423-.824.676a15.73 15.73 0 00-1.6-.932c-.597.644-1.157 1.339-1.613 2.116.359.563.743 1.129 1.1 1.57v4.765l.025.002 2.923.281a.314.314 0 01.284.291l.09 1.291 2.548.182.176-1.191a.315.315 0 01.312-.268h3.082c.156 0 .29.113.313.268l.176 1.191 2.548-.182.09-1.29a.314.314 0 01.283-.292l2.922-.28a.115.115 0 01.026-.003v-.38h.002V14.31c.411-.518.8-1.09 1.1-1.57-.457-.777-1.017-1.473-1.614-2.116a15.75 15.75 0 00-1.6.932c-.254-.253-.542-.46-.824-.676-.276-.222-.587-.384-.883-.574a18.37 18.37 0 00.149-1.975c-.763-.383-1.576-.637-2.399-.82a17.044 17.044 0 00-.89 1.733 6.085 6.085 0 00-.934-.075h-.011a6.08 6.08 0 00-.934.075 16.914 16.914 0 00-.89-1.733zm-2.313 6.973a1.76 1.76 0 11-1.762 1.76c0-.973.79-1.76 1.762-1.76zm8.285 0a1.76 1.76 0 11.002 3.521 1.76 1.76 0 01-.002-3.521zM16 15.514c.313 0 .566.231.566.516v1.62c0 .285-.253.516-.566.516s-.567-.23-.567-.515V16.03c0-.285.253-.516.567-.516z"/><path d="M21.277 19.96l-.09 1.297a.315.315 0 01-.292.292l-3.113.222h-.023a.315.315 0 01-.31-.268l-.18-1.21h-2.54l-.178 1.21a.314.314 0 01-.333.268l-3.113-.222a.315.315 0 01-.292-.292l-.09-1.297-2.628-.253c.001.282.005.591.005.653 0 2.775 3.52 4.11 7.894 4.125h.011c4.374-.016 7.894-1.35 7.894-4.125 0-.063.004-.37.005-.653zm-8.082-3.61a1.169 1.169 0 11-2.337 0 1.169 1.169 0 012.337 0m5.611 0a1.168 1.168 0 102.337 0 1.168 1.168 0 00-2.337 0"/></g></svg>
